X: 35888
T: Sandy Edmonstone
R: hornpipe
M: 4/4
K: Emajor
B|Bcde geBA|GAeg affd|e2ge afba|gedfe2eB|
Bcde geBA|GAeg affd|ebge Acfa|gefde2eG|
geba geBG|GBeg Bdef|eBge ceBc|gefde2eg|
geba geBG|GBeg Bdef|eBGE Acfa|gefde3||

